apps/ledger-live-desktop/src/renderer/images/nanoXDark.v3.svg

<svg width="55" height="252" viewBox="0 0 55 252" fill="none" xmlns="http://www.w3.org/2000/svg">
<path d="M29.3478 135.746C29.3479 132.553 28.2206 129.006 26.3989 125.85C24.5627 122.67 22.0207 119.888 19.2166 118.269C16.3499 116.615 13.6173 116.369 11.5213 117.579C9.44198 118.78 8.29668 121.239 8.29679 124.504C8.29755 130.916 12.8421 138.756 18.4279 141.981C21.2939 143.636 24.0265 143.881 26.1227 142.671C28.202 141.471 29.3473 139.011 29.3478 135.746ZM19.2169 140.614C16.6299 139.121 14.2853 136.555 12.5918 133.622C10.9131 130.715 9.87432 127.446 9.87459 124.504C9.87452 121.826 10.7391 119.853 12.3101 118.946C13.8977 118.029 16.0699 118.274 18.4275 119.636C23.5784 122.609 27.7708 129.836 27.7701 135.746C27.7699 138.424 26.9049 140.398 25.3339 141.305C23.7467 142.221 21.5746 141.976 19.2169 140.614Z" fill="white"/>
<path d="M28.3862 48.3314C28.3861 42.4232 24.1964 35.1956 19.0443 32.2201C16.6866 30.8587 14.5136 30.6137 12.9266 31.5299C11.3556 32.4369 10.4913 34.4107 10.4911 37.088C10.4911 40.0304 11.53 43.2997 13.2089 46.2075C14.9022 49.1404 17.2462 51.706 19.833 53.1993C22.1907 54.5607 24.3636 54.8057 25.9507 53.8895C27.5217 52.9824 28.386 51.0087 28.3862 48.3314Z" fill="white"/>
<path d="M35.4611 28.109L35.4615 135.243C35.0838 133.259 34.5549 131.273 33.8706 129.326L33.8874 129.333L33.8837 28.7585L3.71119 11.1441L3.58878 116.486L3.68309 116.526C3.08749 118.475 2.77202 120.712 2.77206 123.171L2.77225 232.064L2.77266 232.52L36.0998 251.762L36.0998 251.63L52.2029 241.535L52.2026 132.205C52.2025 128.595 51.4995 124.707 50.2583 120.899L50.7751 18.8121L19.0253 0.481079L3.48925 9.19439L35.4608 27.6538L35.4611 28.109ZM19.0413 54.5667C13.4557 51.3411 8.91003 43.5016 8.91062 37.0892C8.91051 33.8245 10.056 31.3656 12.1351 30.1648C14.2305 28.955 16.9637 29.1999 19.8306 30.8548C22.6341 32.4738 25.1763 35.2564 27.0121 38.436C28.8342 41.592 29.9613 45.1387 29.9613 48.3323C29.9614 51.5969 28.8159 54.0559 26.7367 55.2567C24.6414 56.4665 21.9081 56.2216 19.0413 54.5667ZM4.34966 231.609L4.34987 123.171C4.34948 117.315 6.20594 112.885 9.44266 111.016C12.0703 109.499 15.479 109.797 19.0415 111.854C27.5771 116.781 34.5222 130.081 34.5219 141.503L34.5222 249.009L29.6933 246.219L29.6836 246.236L4.34966 231.609ZM50.6248 132.206L50.6255 240.662L36.0998 249.768L36.0997 151.277L50.1456 143.167L50.2255 127.38C50.4829 129.022 50.6248 130.642 50.6248 132.206Z" fill="white"/>
<path d="M16.0747 173.763L16.0756 172.514L11.3768 169.796L11.3702 178.371L12.4121 178.974L12.4176 171.648L16.0747 173.763Z" fill="white"/>
<path d="M26.8771 187.341L27.9189 187.943L27.9254 179.368L23.2268 176.65L23.2258 177.9L26.8826 180.015L26.8771 187.341Z" fill="white"/>
<path d="M26.845 229.506L26.8394 236.832L23.1826 234.717L23.1817 235.966L27.8806 238.684L27.8871 230.108L26.845 229.506Z" fill="white"/>
<path d="M22.6629 204.439C23.0821 204.167 23.3073 203.586 23.3079 202.888C23.3084 202.153 23.0637 201.337 22.5329 200.687L22.533 200.516L23.2072 200.906L23.2081 199.779L19.5206 197.646L19.5181 200.966L20.4579 201.51L20.4595 199.365L20.9497 199.649C21.9814 200.246 22.3183 200.894 22.3174 202.033L22.3172 202.303C22.3164 203.442 22.0094 203.816 20.5895 202.995L18.6691 201.884C17.2391 201.057 16.9431 200.31 16.944 199.171L16.9442 198.926C16.945 197.811 17.2926 197.657 18.2529 198.2L18.2539 196.852C16.8441 196.159 15.9547 196.773 15.9534 198.463C15.9528 199.284 16.1669 200.094 16.5749 200.845C17.1771 201.965 18.1983 202.985 19.6283 203.812C21.0073 204.609 22.0292 204.832 22.6629 204.439Z" fill="white"/>
<path d="M16.0379 221.995L16.0369 223.244L23.1873 227.38L23.1916 221.744L22.2519 221.201L22.2486 225.587L16.0379 221.995Z" fill="white"/>
<path d="M12.3749 228.468L12.3805 221.142L11.3387 220.539L11.3321 229.115L16.031 231.832L16.0319 230.583L12.3749 228.468Z" fill="white"/>
<path d="M23.1984 214.577L22.2587 214.033L22.2554 218.358L20.0693 217.094L20.0723 213.32L19.1325 212.777L19.1297 216.55L16.9844 215.309L16.9876 211.169L16.0478 210.625L16.0437 216.016L23.1941 220.151L23.1984 214.577Z" fill="white"/>
<path d="M23.215 192.526L22.2753 191.982L22.272 196.307L20.086 195.042L20.0888 191.269L19.1491 190.726L19.1462 194.499L17.001 193.258L17.0042 189.117L16.0644 188.574L16.0603 193.964L23.2107 198.1L23.215 192.526Z" fill="white"/>
<path d="M23.202 210.314C23.2037 207.974 21.7233 206.247 19.6292 205.036C17.5045 203.807 16.0533 203.9 16.0516 206.203L16.0496 208.849L23.2 212.985L23.202 210.314ZM16.99 208.167L16.991 206.832C16.9919 205.57 17.258 205.037 18.6882 205.864L20.5676 206.951C21.9976 207.778 22.2629 208.618 22.2619 209.88L22.2609 211.215L16.99 208.167Z" fill="white"/>
<path d="M23.2176 189.647L20.3677 187.999L20.3691 186.161C20.3698 185.218 20.697 185.027 21.5143 185.5L23.2202 186.487L23.2211 185.237L21.6787 184.345C20.555 183.695 20.1258 183.765 20.0025 184.675L19.8593 184.592C19.6659 183.586 18.9717 182.559 18.1445 182.081C17.6235 181.779 17.1534 181.752 16.775 181.999C16.3045 182.315 16.0691 182.964 16.0683 183.98L16.0662 186.737L23.2166 190.872L23.2176 189.647ZM17.0071 186.055L17.0086 184.095C17.0094 183.139 17.2751 182.95 18.0005 183.37L18.4294 183.618C19.1751 184.049 19.4302 184.527 19.4295 185.495L19.428 187.455L17.0071 186.055Z" fill="white"/>
</svg>

<svg xmlns="http://www.w3.org/2000/svg" width="55" height="252" fill="none" viewBox="0 0 55 252"><path fill="#fff" d="M29.348 135.746c0-3.193-1.127-6.74-2.95-9.896-1.835-3.18-4.377-5.962-7.181-7.581-2.867-1.654-5.6-1.9-7.696-.69-2.079 1.201-3.224 3.66-3.224 6.925 0 6.412 4.545 14.252 10.13 17.477 2.867 1.655 5.6 1.9 7.696.69 2.079-1.2 3.224-3.66 3.225-6.925m-10.131 4.868c-2.587-1.493-4.932-4.059-6.625-6.992-1.679-2.907-2.718-6.176-2.717-9.118 0-2.678.864-4.651 2.435-5.558 1.588-.917 3.76-.672 6.117.69 5.151 2.973 9.344 10.2 9.343 16.11 0 2.678-.865 4.652-2.436 5.559-1.587.916-3.76.671-6.117-.691m9.169-92.283c0-5.908-4.19-13.135-9.342-16.11-2.357-1.362-4.53-1.607-6.117-.691-1.571.907-2.436 2.88-2.436 5.558 0 2.942 1.039 6.212 2.718 9.12 1.693 2.932 4.037 5.498 6.624 6.991 2.358 1.362 4.53 1.607 6.118.69 1.57-.907 2.435-2.88 2.435-5.558"/><path fill="#fff" d="M35.461 28.109v107.134a41 41 0 0 0-1.59-5.917l.016.007-.003-100.574L3.71 11.144l-.12 105.342.094.04c-.596 1.949-.911 4.186-.91 6.645V232.52L36.1 251.762v-.132l16.103-10.095v-109.33c0-3.61-.704-7.498-1.945-11.306l.517-102.087L19.025.482 3.49 9.193l31.972 18.46zm-16.42 26.458C13.456 51.34 8.91 43.502 8.911 37.089c0-3.264 1.145-5.723 3.224-6.924 2.095-1.21 4.829-.965 7.696.69 2.803 1.619 5.345 4.401 7.181 7.581 1.822 3.156 2.95 6.703 2.95 9.896 0 3.265-1.146 5.724-3.225 6.925-2.096 1.21-4.829.965-7.696-.69M4.35 231.609V123.171c0-5.856 1.856-10.286 5.093-12.155 2.627-1.517 6.036-1.219 9.599.838 8.535 4.927 15.48 18.227 15.48 29.649v107.506l-4.829-2.79-.01.017zm46.275-99.403v108.456L36.1 249.768v-98.491l14.046-8.11.08-15.787c.257 1.642.399 3.262.399 4.826"/><path fill="#fff" d="M16.075 173.763v-1.249l-4.698-2.718-.007 8.575 1.042.603.006-7.326zm10.802 13.578 1.042.602.006-8.575-4.698-2.718-.001 1.25 3.657 2.115zm-.032 42.165-.006 7.326-3.656-2.115-.001 1.249 4.699 2.718.006-8.576zm-4.182-25.067c.42-.272.644-.853.645-1.551 0-.735-.244-1.551-.775-2.201v-.171l.674.39.001-1.127-3.687-2.133-.003 3.32.94.544.002-2.145.49.284c1.031.597 1.368 1.245 1.367 2.384v.27c0 1.139-.308 1.513-1.727.692l-1.92-1.111c-1.43-.827-1.727-1.574-1.726-2.713v-.245c.001-1.115.349-1.269 1.309-.726v-1.348c-1.409-.693-2.298-.079-2.3 1.611 0 .821.214 1.631.622 2.382.602 1.12 1.623 2.14 3.053 2.967 1.38.797 2.401 1.02 3.035.627m-6.625 17.556-.001 1.249 7.15 4.136.005-5.636-.94-.543-.003 4.386zm-3.663 6.473.005-7.326-1.041-.603-.007 8.576 4.699 2.717v-1.249zm10.823-13.891-.94-.544-.003 4.325-2.186-1.264.003-3.774-.94-.543-.002 3.773-2.146-1.241.004-4.14-.94-.544-.004 5.391 7.15 4.135zm.017-22.051-.94-.544-.003 4.325-2.186-1.265.003-3.773-.94-.543-.003 3.773-2.145-1.241.003-4.141-.94-.543-.004 5.39 7.15 4.136zm-.013 17.788c.002-2.34-1.479-4.067-3.573-5.278-2.125-1.229-3.576-1.136-3.577 1.167l-.002 2.646 7.15 4.136zm-6.212-2.147.001-1.335c0-1.262.267-1.795 1.697-.968l1.88 1.087c1.43.827 1.695 1.667 1.694 2.929l-.001 1.335zm6.228-18.52-2.85-1.648.001-1.838c0-.943.328-1.134 1.145-.661l1.706.987.001-1.25-1.542-.892c-1.124-.65-1.553-.58-1.676.33l-.144-.083c-.193-1.006-.887-2.033-1.715-2.511-.52-.302-.99-.329-1.369-.082-.47.316-.706.965-.707 1.981l-.002 2.757 7.15 4.135zm-6.21-3.592v-1.96c.001-.956.267-1.145.992-.725l.43.248c.745.431 1 .909 1 1.877l-.002 1.96z"/></svg>
